svgs/sharp-solid/files-medical.svg

<svg xmlns="http://www.w3.org/2000/svg" viewBox="0 0 448 512"><!--! Font Awesome Pro 6.6.0 by @fontawesome - https://fontawesome.com License - https://fontawesome.com/license (Commercial License) Copyright 2024 Fonticons, Inc. --><path d="M320 128l0-32 0-96L96 0l0 416 352 0 0-288-96 0-32 0zm96-64L384 32 352 0l0 45.3L352 64l0 32 32 0 18.7 0L448 96 416 64zM48 96L0 96l0 24L0 488l0 24 24 0 304 0 24 0 0-48-24 0L48 464l0-344 0-24zm192 64l64 0 0 64 64 0 0 64-64 0 0 64-64 0 0-64-64 0 0-64 64 0 0-64z"/></svg>

<svg xmlns="http://www.w3.org/2000/svg" viewBox="0 0 448 512"><!--! Font Awesome Pro 6.4.2 by @fontawesome - https://fontawesome.com License - https://fontawesome.com/license (Commercial License) Copyright 2023 Fonticons, Inc. --><path d="M320 128V96 0H96V416H448V128H352 320zm96-64L384 32 352 0V45.3 64 96h32 18.7H448L416 64zM48 96H0v24V488v24H24 328h24V464H328 48V120 96zm192 64h64v64h64v64H304v64H240V288H176V224h64V160z"/></svg>
